X:498030
T:Donald Willie and his Dog
H:
C: D. Morrison  (South Ulster Scots)
B: Scots Guards I
O:Kevin Fraser
Z:Kevin Fraser
Q:3/8=120
K:HP
M:9/8
L:1/8
R:Jig
U: R = ///
U: r = //
U: V = !accent!
V:M gstem=up stem=down name="Melody"
V:H gstem=up stem=down name="Harmony"
V:C gstem=up stem=down name="C-Harmony"
V:S gstem=up stem=down dyn=up stafflines=1 clef=perc middle=G name="Snare" sname="Snare"
V:B gstem=up stem=down clef=none dyn=up name="Bass"
V:T gstem=up stem=down clef=none dyn=up name="Tenor"
V:BB gstem=up stem=down name="Brass Bass" sname="ABCD-C" transpose=-1  octave=-1 clef=bass
V:BC gstem=up stem=down name="Brass Chord" sname="ABCD-D" transpose=-1
V:BD gstem=up stem=down name="Brass Chord 2" sname="ABCD-B" transpose=-1
V:P gstem=up stem=down name="Piano" octave=-1
I:MIDI=program 110
%%MIDI gracedivider 4
%%MIDI gchord
%%MIDI beatstring 
I:linebreak $
%%score {M S}
%%score {M}
%%landscape
%%MIDI program 109 #bagpipes
%%MIDI vol 100
[V:M][|: {g}A2{d}c {G}c{d}A{e}c {gBd}B2{e}A | {g}A2{d}c {G}c{d}A{e}c {gBd}B3 | {g}A2{d}c {G}c{d}A{e}c {gBd}B2{e}A | {gcd}c2{e}A {g}A{d}B{e}G {g}A3 :|] $
[V:M][|: {gBd}B2e {g}eA{d}c {gBd}B2{e}A | {gBd}B2e {g}eA{d}c {gBd}B3 | {gBd}B2e {g}eA{d}c {gBd}B2{e}A | {gcd}c2{e}A {g}A{d}B{e}G {g}A3 :|] $
[V:M][|: {g}A2{d}c {G}c{d}B{G}B {gBd}B2{e}A | {g}A2{d}B {G}A{d}c{G}c {gBd}B3 | {g}A2{d}c {G}c{d}B{G}B {gBd}B2{e}A | {gcd}c2{e}A {g}A{d}B{e}G {g}A3 :|] $
[V:M][|: {gef}e2c {g}cfd {gef}e2c | {g}cec {g}cdc {gBd}B3 | {gef}e2c {g}cfd {gef}e2c | {gcd}c2{e}A {g}A{d}B{e}G {g}A3 :|] $


